_site/images/homepage/encryption.svg

<svg fill="none" height="30" viewBox="0 0 30 30" width="30" xmlns="http://www.w3.org/2000/svg"><rect fill="#00b6ab" height="30" rx="7" width="30"/><path clip-rule="evenodd" d="m23.1 15.9c.4971 0 .9-.4029.9-.9s-.4029-.9-.9-.9h-1.8v-1.8h1.8c.4971 0 .9-.4029.9-.9 0-.497-.4029-.9-.9-.9h-1.962c-.2721-.76437-.8736-1.36584-1.638-1.638v-1.96201c0-.49704-.4029-.89999-.9-.89999s-.9.40295-.9.89999v1.80002h-1.8v-1.80002c0-.49704-.4029-.89999-.9-.89999s-.9.40295-.9.89999v1.80002h-1.8v-1.80002c0-.49704-.4029-.89999-.9-.89999s-.9.40295-.9.89999v1.96201c-.76438.27216-1.36586.87363-1.638 1.638h-1.962c-.49706 0-.9.403-.9.9 0 .4971.40294.9.9.9h1.8v1.8h-1.8c-.49706 0-.9.4029-.9.9s.40294.9.9.9h1.8v1.8h-1.8c-.49706 0-.9.4029-.9.9 0 .497.40294.9.9.9h1.962c.27214.7644.87362 1.3658 1.638 1.638v1.962c0 .497.4029.9.9.9s.9-.403.9-.9v-1.8h1.8v1.8c0 .497.4029.9.9.9s.9-.403.9-.9v-1.8h1.8v1.8c0 .497.4029.9.9.9s.9-.403.9-.9v-1.962c.7644-.2722 1.3659-.8736 1.638-1.638h1.962c.4971 0 .9-.403.9-.9 0-.4971-.4029-.9-.9-.9h-1.8v-1.8zm-9.9002-3.6002h3.6c.4971 0 .9.403.9.9v3.6c0 .4971-.4029.9-.9.9h-3.6c-.4971 0-.9-.4029-.9-.9v-3.6c0-.497.4029-.9.9-.9zm.9002 3.5998h1.8v-1.8h-1.8zm4.5 3.6004c.4971 0 .9-.403.9-.9v-7.2c0-.497-.4029-.9-.9-.9h-7.2c-.4971 0-.9.403-.9.9v7.2c0 .497.4029.9.9.9z" fill="#fff" fill-rule="evenodd"/></svg>

<svg width="30" height="30" viewBox="0 0 30 30" fill="none" xmlns="http://www.w3.org/2000/svg">
<rect width="30" height="30" rx="7" fill="#00B6AB"/>
<path fill-rule="evenodd" clip-rule="evenodd" d="M23.1 15.9C23.5971 15.9 24 15.4971 24 15C24 14.5029 23.5971 14.1 23.1 14.1H21.3V12.3H23.1C23.5971 12.3 24 11.8971 24 11.4C24 10.903 23.5971 10.5 23.1 10.5H21.138C20.8659 9.73563 20.2644 9.13416 19.5 8.862V6.89999C19.5 6.40295 19.0971 6 18.6 6C18.1029 6 17.7 6.40295 17.7 6.89999V8.70001H15.9V6.89999C15.9 6.40295 15.4971 6 15 6C14.5029 6 14.1 6.40295 14.1 6.89999V8.70001H12.3V6.89999C12.3 6.40295 11.8971 6 11.4 6C10.9029 6 10.5 6.40295 10.5 6.89999V8.862C9.73562 9.13416 9.13414 9.73563 8.862 10.5H6.9C6.40294 10.5 6 10.903 6 11.4C6 11.8971 6.40294 12.3 6.9 12.3H8.7V14.1H6.9C6.40294 14.1 6 14.5029 6 15C6 15.4971 6.40294 15.9 6.9 15.9H8.7V17.7H6.9C6.40294 17.7 6 18.1029 6 18.6C6 19.097 6.40294 19.5 6.9 19.5H8.862C9.13414 20.2644 9.73562 20.8658 10.5 21.138V23.1C10.5 23.597 10.9029 24 11.4 24C11.8971 24 12.3 23.597 12.3 23.1V21.3H14.1V23.1C14.1 23.597 14.5029 24 15 24C15.4971 24 15.9 23.597 15.9 23.1V21.3H17.7V23.1C17.7 23.597 18.1029 24 18.6 24C19.0971 24 19.5 23.597 19.5 23.1V21.138C20.2644 20.8658 20.8659 20.2644 21.138 19.5H23.1C23.5971 19.5 24 19.097 24 18.6C24 18.1029 23.5971 17.7 23.1 17.7H21.3V15.9H23.1ZM13.1998 12.2998H16.7998C17.2969 12.2998 17.6998 12.7028 17.6998 13.1998V16.7998C17.6998 17.2969 17.2969 17.6998 16.7998 17.6998H13.1998C12.7027 17.6998 12.2998 17.2969 12.2998 16.7998V13.1998C12.2998 12.7028 12.7027 12.2998 13.1998 12.2998ZM14.1 15.8996H15.9V14.0996H14.1V15.8996ZM18.6 19.5C19.0971 19.5 19.5 19.097 19.5 18.6V11.4C19.5 10.903 19.0971 10.5 18.6 10.5H11.4C10.9029 10.5 10.5 10.903 10.5 11.4V18.6C10.5 19.097 10.9029 19.5 11.4 19.5H18.6Z" fill="white"/>
</svg>
